public/assets/icons/delete.svg

<svg width="30" height="30" viewBox="0 0 30 30" fill="none" xmlns="http://www.w3.org/2000/svg">
<circle opacity="0.1" cx="15" cy="15" r="15" fill="#FF7474"/>
<path d="M21 10.9876C18.78 10.7676 16.5467 10.6543 14.32 10.6543C13 10.6543 11.68 10.721 10.36 10.8543L9 10.9876" stroke="#FF7474" stroke-linecap="round" stroke-linejoin="round"/>
<path d="M12.666 10.314L12.8127 9.44065C12.9193 8.80732 12.9993 8.33398 14.126 8.33398H15.8727C16.9993 8.33398 17.086 8.83398 17.186 9.44732L17.3327 10.314" stroke="#FF7474" stroke-linecap="round" stroke-linejoin="round"/>
<path d="M19.5669 13.0938L19.1336 19.8071C19.0603 20.8537 19.0003 21.6671 17.1403 21.6671H12.8603C11.0003 21.6671 10.9403 20.8537 10.8669 19.8071L10.4336 13.0938" stroke="#FF7474" stroke-linecap="round" stroke-linejoin="round"/>
<path d="M13.8867 18H16.1067" stroke="#FF7474" stroke-linecap="round" stroke-linejoin="round"/>
<path d="M13.334 15.334H16.6673" stroke="#FF7474" stroke-linecap="round" stroke-linejoin="round"/>
</svg>

<svg xmlns="http://www.w3.org/2000/svg" width="30" height="30" fill="none"><circle cx="15" cy="15" r="15" fill="#FF7474" opacity=".1"/><path stroke="#FF7474" stroke-linecap="round" stroke-linejoin="round" d="M21 10.988a68 68 0 0 0-6.68-.334q-1.98 0-3.96.2L9 10.988M12.666 10.314l.147-.873c.106-.634.186-1.107 1.313-1.107h1.747c1.126 0 1.213.5 1.313 1.113l.147.867M19.567 13.094l-.433 6.713c-.074 1.047-.134 1.86-1.994 1.86h-4.28c-1.86 0-1.92-.813-1.993-1.86l-.433-6.713M13.887 18h2.22M13.334 15.334h3.333"/></svg>
